X:67
T:Gallant Enterprize,The. JJo2.067
Z:vmp.Ruairidh Greig 2014 www.village-music-project.org.uk
B:J.Johnson Choice Collection Vol 2 after c1750
M:C|
L:1/8
Q:1/4=100
N:Each strain twice
K:Dm
A|FDBB BA2B|dFGG GF/E/ Ff-|fe2d ^cd/e/ GF/E/|FdE^cd3||
f|eAd=B ^cA2G|^FAdA cG2F|EGcG Af2a|Bg2B ca2c|
dgce f3a|^fd2c'2b/a/ bg|ec2b2a/g/ af|dB2g2 f/e/ fe|
dbae ^c3A|BG2e ^cA2a|^cdecd3|]

